X: 21932
T: Kitten, The
R: slip jig
M: 9/8
K: Eminor
|:G2B GEE GEE|G2B GEE FED|G2B GEE GEE|FGA ABG FED:|
|:G2c BGd BGd|G2c BGd cBA|G2c BGd BGd|ecA ABG FED:|
|:B2A GEE GEE|B2A GEE FED|B2A GEE GEE|FGA ABG FED:|
|:G3 dBG BdB|~G3 dBG ecA|GBd ~g3 gdB|ecA ABG FED:|
|:BGE cGE dGE|cGE BGE AFD|BGE cGE dGE|d2B ABG FED:|

